X:650
T:Marquis of Tullybardine, The
C:John Crerar
B:Skye Collection
Z:Nigel Gatherer
L:1/8
M:4/4
K:A
ec | A/A/A cA eAAf | eAAa fedc | Bcde     fBBg  | aBBa gfea  | 
     A/A/A cA eAAf | eAAa fedc | defa     fecf  | ecBc f2   :|
eg | aA A/A/A cAAg | aAAa fedc | bB B/B/B dBB^a | bBB=a gfeg | 
     aA A/A/A cAAg | aAAa fedc | defa     fecf  | ecBc f2  :|]

